!!!OTL: Tageweis von der Koenigstochter und dem jungen Grafen
!!!ARE: Europa, Mitteleuropa, Deutschland
!!!SCT: A0020D
!!!YEM: Copyright 1995, estate of Helmut Schaffrath.
**kern
*ICvox
*Ivox
!! Mixed meters:  4/2; 6/2
*M4/2
*k[b-]
*F:
{1f
=1
2a
2a
2b-
2b-
=2
*M6/2
1cc
1cc
2r}
{2cc
=3
*M4/2
2cc
2cc
2b-
2a
=4
1g
1f}
=5
{1f
=6
2a
2a
2b-
2b-
=7
*M6/2
1cc
1cc
2r}
{2cc
=8
*M4/2
2cc
2cc
2b-
2a
=9
1g
1f}
=10
{1a
=11
2a
2a
2g
2a
=12
2f
2g
1a
=13
1r}
{1cc
=14
2dd
2cc
2cc
2a
=15
2cc
1b-
2a
=16
1g
1f
=17
1r}
{1c
=18
2f
2g
2a
2b-
=19
1g
1f}
==
!!!AGN: Romanze, Ballade, Lied
!! Dieselbe Melodie wenig anders (1611)
!!!ONB: ESAC (Essen Associative Code) Database: ALTDEU
!!!AMT: irregular
!!!AIN: vox
!!!EED: Helmut Schaffrath
!!!EEV: 1.0
*-
